dist/img/upload.svg

<svg xmlns="http://www.w3.org/2000/svg" height="511pt" version="1.1" viewBox="-53 1 511 511.99906" width="511pt">
<g id="surface1">
<path d="M 276.410156 3.957031 C 274.0625 1.484375 270.84375 0 267.507812 0 L 67.777344 0 C 30.921875 0 0.5 30.300781 0.5 67.152344 L 0.5 444.84375 C 0.5 481.699219 30.921875 512 67.777344 512 L 338.863281 512 C 375.71875 512 406.140625 481.699219 406.140625 444.84375 L 406.140625 144.941406 C 406.140625 141.726562 404.65625 138.636719 402.554688 136.285156 Z M 279.996094 43.65625 L 364.464844 132.328125 L 309.554688 132.328125 C 293.230469 132.328125 279.996094 119.21875 279.996094 102.894531 Z M 338.863281 487.265625 L 67.777344 487.265625 C 44.652344 487.265625 25.234375 468.097656 25.234375 444.84375 L 25.234375 67.152344 C 25.234375 44.027344 44.527344 24.734375 67.777344 24.734375 L 255.261719 24.734375 L 255.261719 102.894531 C 255.261719 132.945312 279.503906 157.0625 309.554688 157.0625 L 381.40625 157.0625 L 381.40625 444.84375 C 381.40625 468.097656 362.113281 487.265625 338.863281 487.265625 Z M 338.863281 487.265625 " style=" stroke:none;fill-rule:nonzero;fill:rgb(0%,0%,0%);fill-opacity:1;" />
<path d="M 305.101562 401.933594 L 101.539062 401.933594 C 94.738281 401.933594 89.171875 407.496094 89.171875 414.300781 C 89.171875 421.101562 94.738281 426.667969 101.539062 426.667969 L 305.226562 426.667969 C 312.027344 426.667969 317.59375 421.101562 317.59375 414.300781 C 317.59375 407.496094 312.027344 401.933594 305.101562 401.933594 Z M 305.101562 401.933594 " style=" stroke:none;fill-rule:nonzero;fill:rgb(0%,0%,0%);fill-opacity:1;" />
<path d="M 140 268.863281 L 190.953125 214.074219 L 190.953125 349.125 C 190.953125 355.925781 196.519531 361.492188 203.320312 361.492188 C 210.125 361.492188 215.6875 355.925781 215.6875 349.125 L 215.6875 214.074219 L 266.640625 268.863281 C 269.113281 271.457031 272.332031 272.820312 275.667969 272.820312 C 278.636719 272.820312 281.730469 271.707031 284.078125 269.480469 C 289.027344 264.78125 289.398438 256.988281 284.699219 252.042969 L 212.226562 174.253906 C 209.875 171.78125 206.660156 170.296875 203.199219 170.296875 C 199.734375 170.296875 196.519531 171.78125 194.171875 174.253906 L 121.699219 252.042969 C 117 256.988281 117.371094 264.902344 122.316406 269.480469 C 127.511719 274.179688 135.300781 273.808594 140 268.863281 Z M 140 268.863281 " style=" stroke:none;fill-rule:nonzero;fill:rgb(0%,0%,0%);fill-opacity:1;" />
</g>
</svg>

<svg xmlns="http://www.w3.org/2000/svg" height="511pt" viewBox="-53 1 511 511.999" width="511pt"><path d="M276.41 3.957C274.062 1.484 270.844 0 267.508 0H67.778C30.921 0 .5 30.3.5 67.152v377.692C.5 481.699 30.922 512 67.777 512h271.086c36.856 0 67.278-30.3 67.278-67.156V144.94c0-3.214-1.485-6.304-3.586-8.656zm3.586 39.7l84.469 88.671h-54.91c-16.325 0-29.559-13.11-29.559-29.433zm58.867 443.609H67.777c-23.125 0-42.543-19.168-42.543-42.422V67.152c0-23.125 19.293-42.418 42.543-42.418h187.485v78.16c0 30.051 24.242 54.168 54.293 54.168h71.851v287.782c0 23.254-19.293 42.422-42.543 42.422zm0 0"/><path d="M305.102 401.934H101.539c-6.8 0-12.367 5.562-12.367 12.367 0 6.8 5.566 12.367 12.367 12.367h203.688c6.8 0 12.367-5.566 12.367-12.367 0-6.805-5.567-12.367-12.492-12.367zm0 0M140 268.863l50.953-54.789v135.051c0 6.8 5.567 12.367 12.367 12.367 6.805 0 12.368-5.566 12.368-12.367v-135.05l50.953 54.788c2.472 2.594 5.691 3.957 9.027 3.957 2.969 0 6.062-1.113 8.41-3.34 4.95-4.699 5.32-12.492.621-17.437l-72.472-77.79c-2.352-2.472-5.567-3.956-9.028-3.956-3.465 0-6.68 1.484-9.027 3.957l-72.473 77.789c-4.699 4.945-4.328 12.86.617 17.437 5.196 4.7 12.985 4.329 17.684-.617zm0 0"/></svg>
